**kern
*staff1
*head[head1a]
*head[head1b]
*head[head1aa]
*solo1[solo1a]
*solo1[solo1b]
*head[head2a]
=1-
*clefG2
*k[]
*F:
*M4/4
8r
*>head1a
{8b\L
8cc\
8dd\J
8ee\L
8dd\
8a\
8cc\J
=2
8b-/L
8a/
8b-/
8a/J
4.g/
8a/
=3
8b-/L
8d/
8f/
8a/J
4g/
8r
8a/
=4
8b-\L
16cc\L
16b-\J
8a\
8g\J
8b-\L
8cc\
8g\
8b-\J
=5
8a/L
8g/
8f/
8d/J
4.d-/
8a/
=6
8e/L
8d/J
4e/
8r
4f/
8g/
=7
8a/L
8f/
8g/
8a/J
8b-\L
8cc\
8dd-\
8b-\J
=8
4cc\}
4r
4r
8r
{8b-\
=9
8cc\L
8dd\
8ee-\
[8dd\J
4dd\]}
8r
{8a/
=10
8b-/L
8a/
8b-/
8a/J
4.g/
8a/
=11
8b-/L
8d/
8f/
8a/J
4g/
8r
8a/
=12
8b-\L
16cc\L
16b-\J
8a\
8g\J
8b-\L
8cc\
8g\
8b-\J
=13
8a/L
8g/
8f/
8d/J
4.d-/
8a/
=14
8e/L
8d/J
4e/
8r
4f/
8g/
=15
8a/L
8f/
8g/
8a/J
8b-\L
8cc\
8dd-\
8b-\J
=16
4cc\}
4r
2r
=17
8r
*>head1b
{16c/LL
16d/J
8f/
8g/J
8a/L
8b-/
8cc/
8a/J
=18
8b-\L
16cc\L
16b-\J
8a\
8g\J
8f/L
8e/
8e-/
8G/J
=19
8d/L
[8c/J
4c/]}
2r
=20
2r
8r
{8d/L
8f/
8g/J
=21
8a/L
8b-/
8cc/
8a/J
8b-\L
16cc\L
16b-\J
8g\
8f\J
=22
4a/
8r
16d/LL
16e/JJ
8f/L
8g/
8a/
8b/J
=23
8ee\L
[8dd\J
4dd\]}
2r
=24
8r
*>head1aa
{8f#/
12g\L
12b-\
12dd\J
8ff\
24ee\LL
24dd\
24cc\JJ
8b-/L
8a/J
=25
8g/L
8f/J
12e/L
12g/
12b-/J
16dd-\LL
16ee-\J
[8cc\
8cc\]
8a\J
=26
8b-/L
8a/
8b-/
8a/J
4.g/
8a/
=27||
8b-/L
8d/
8f/
8a/J
4g/
8r
8a/
=28
8b-\L
16cc\L
16b-\J
8a\
8g\J
8b-\L
8cc\
8g\
8b-\J
=29
8a/L
8g/
8f/
8d/J
4.d-/
8a/
=30
8e/L
8d/J
4e/
8r
4f/
8g/
=31
8a/L
8f/
8g/
8a/J
8b-\L
8cc\
8dd-\
8b-\J
=32
4cc\}
4r
2r
=33
8r
*>solo1a
{16g\LL
16a\J
8b-\
16cc\L
16b-\JJ
8a/L
8g/
8g-/
8a/J
=34
24g/LL
24a/
24g/JJ
8f/L
8e/
8d/J
8r
8d/L
8f/
8d/J
=35||
8B-/L
8G/
8A/
8G/J
4c/}
4r
=36
2r
8r
{8c#/
20d/LL
20f/
20a/
20b-/
20cc/JJ
=37
4a/
8cc/L
[8a-/J
4a-/]}
4r
=38
4r
8r
{8c/
8g/L
8g-/
8f/
8e-/J
=39
8d/L
8F/
8G/
8B-/J
8d-/L
8f/
8c/
8B-/J
=40
8A/L
8c/
8d/
[8e/J
4e/]}
4r
=41
2r
2r
=42
8r
{8f#/
12g\L
12b-\
12dd\J
8ff#\L
8gg\
8ee\J
8r
=43||
8ee\L
8ff\
8dd\J
8r
8ee-\L
8een\J}
4r
=44
2r
8r
{[8dd\L
8dd\]
16b-\L
16g\JJ
=45
8a/L
8b-/
8cc/
8a/J
8b-\L
8cc\J
16dd-\LL
16ee-\J
[8cc\J
=46
4.cc\]
8a/
24b-\LL
24cc\
24b-\JJ
8a/L
8g/
8g-/J
=47
8f/L
8e-/J
12d/L
12f/
12a/J
8cc/L
8b-/
8d-/
8B/J
=48
8c/L
8b-/
8g/
8g#/J
8a/L
[8f/J
4f/]}
=49
1r
=50
8r
{16c/LL
16e-/JJ
16g/LL
16a/
16b-/
16cc/JJ
8dd\L
8cc\J}
4r
=51||
8r
{16c/LL
16e-/JJ
12g-/L
12a/
12dd-/J
4.aa-\
8gg-\
=52
8ff\L
16ee\L
16ee-\J
8dd\
[8ee-\J
8ee-\L]
16dd\L
16dd-\J
8cc\
[8ddn\J
=53
4dd\]}
4r
2r
=54
8r
{16d/LL
16e/J
8f/
8g/J
8a\L
8b\
8ee\
16ee-\L
16dd\JJ
=55
8dd-/L
8a/
8f/
8d-/J
4a/}
4r
=56
4r
8r
{8f#/
12g\L
12b-\
12dd\J
8ff\
24dd\LL
24dd-\
24cc\JJ
=57
8b-/L
8a/
8g/
8f/J
12e/L
12g/
12b-/J
8dd\L
[8cc\J
=58
8cc\]
8r
8c/L
8c/J
4b-\
8c/L
8c/J
=59||
4a/
8c/L
[8g/J
4g/]}
4r
=60
4r
8r
{16d/LL
16c/JJ
8B/L
8c/
8e/
8g/J
=61
8cc\L
8a\
8b-\
16cc\L
16b-\JJ
8a-/L
16e/L
16c/JJ
4B-/}
=62
4r
8r
{8G#/
8A/L
16c/L
16e/J
8g/
8g-/J
=63
8f/L
8e-/J
12d/L
12f/
12a/J
8cc/L
8b-/
8d-/
8B/J
=64
8c/L
8B-/
8.a/
16b-/Jk
16a/LL
16f/
16c/JJ}
16r
4r
=65
4r
8r
{[8A/
4A/]
8c/L
8e/J
=66
2d/}
2r
=67||
1r
=68
1r
=69
1r
=70
1r
=71
1r
=72
1r
=73
1r
=74
1r
=75
1r
=76
1r
=77
1r
=78
1r
=79
1r
=80
1r
=81
1r
=82
1r
=83
1r
=84
1r
=85
1r
=86
1r
=87
1r
=88
1r
=89
1r
=90
1r
=91
1r
=92
1r
=93
1r
=94
1r
=95
1r
=96
1r
=97
1r
=98
1r
=99||
1r
=100
1r
=101
1r
=102
1r
=103
1r
=104
1r
=105
1r
=106
1r
=107
1r
=108
1r
=109
1r
=110
1r
=111
1r
=112
1r
=113
1r
=114
1r
=115||
1r
=116
2r
8r
*>solo1b
{8c#/
12d/L
12f/
12a/J
=117
8cc\L
8a\
8b-\
16cc\L
16b-\JJ
8a/L
8g/
8e-/
8c/J
=118
8f/L
[8e-/J
4e-/]}
2r
=119
1r
=120
8r
{8d/
16f/LL
16a/
16b-/
16dd/JJ
16ff\LL
16dd\
16ee-\
16een\JJ
16cc\LL
16cc#\
16dd\
16ccn\JJ
=121
16b-/LL
16a/
16g/
16f/JJ
16e/LL
16g/
16b-/
16dd/JJ
4cc\}
8r
*>head2a
{8a/
=122
8b-/L
8a/
8b-/
8a/J
4.g/
8a/
=123||
8b-/L
8d/
8f/
8a/J
4g/
8r
8a/
=124
8b-\L
16cc\L
16b-\J
8a\
8g\J
8b-\L
8cc\
8g\
8b-\J
=125
8a/L
8g/
8f/
8d/J
4.d-/
8a/
=126
8e/L
8d/J
4e/
8r
4f/
8g/
=127
8a/L
8f/
8g/
8a/J
8b-\L
8cc\
8dd-\
8b-\J
=128
4cc\
8r
8a/
8b-/L
8cc/
8a/
8f/J}
==
*-
